svg/media/skip_forward_fill.svg

<?xml version="1.0" encoding="UTF-8"?>
<svg width="24px" height="24px" viewBox="0 0 24 24" version="1.1" xmlns="http://www.w3.org/2000/svg" xmlns:xlink="http://www.w3.org/1999/xlink">
    <title>skip_forward_fill</title>
    <g id="页面-1" stroke="none" stroke-width="1" fill="none" fill-rule="evenodd">
        <g id="Media" transform="translate(-1104.000000, -48.000000)" fill-rule="nonzero">
            <g id="skip_forward_fill" transform="translate(1104.000000, 48.000000)">
                 <path d="M24,0 L24,24 L0,24 L0,0 L24,0 Z M12.5934901,23.257841 L12.5819402,23.2595131 L12.5108777,23.2950439 L12.4918791,23.2987469 L12.4918791,23.2987469 L12.4767152,23.2950439 L12.4056548,23.2595131 C12.3958229,23.2563662 12.3870493,23.2590235 12.3821421,23.2649074 L12.3780323,23.275831 L12.360941,23.7031097 L12.3658947,23.7234994 L12.3769048,23.7357139 L12.4804777,23.8096931 L12.4953491,23.8136134 L12.4953491,23.8136134 L12.5071152,23.8096931 L12.6106902,23.7357139 L12.6232938,23.7196733 L12.6232938,23.7196733 L12.6266527,23.7031097 L12.609561,23.275831 C12.6075724,23.2657013 12.6010112,23.2592993 12.5934901,23.257841 L12.5934901,23.257841 Z M12.8583906,23.1452862 L12.8445485,23.1473072 L12.6598443,23.2396597 L12.6498822,23.2499052 L12.6498822,23.2499052 L12.6471943,23.2611114 L12.6650943,23.6906389 L12.6699349,23.7034178 L12.6699349,23.7034178 L12.678386,23.7104931 L12.8793402,23.8032389 C12.8914285,23.8068999 12.9022333,23.8029875 12.9078286,23.7952264 L12.9118235,23.7811639 L12.8776777,23.1665331 C12.8752882,23.1545897 12.8674102,23.1470016 12.8583906,23.1452862 L12.8583906,23.1452862 Z M12.1430473,23.1473072 C12.1332178,23.1423925 12.1221763,23.1452606 12.1156365,23.1525954 L12.1099173,23.1665331 L12.0757714,23.7811639 C12.0751323,23.7926639 12.0828099,23.8018602 12.0926481,23.8045676 L12.108256,23.8032389 L12.3092106,23.7104931 L12.3186497,23.7024347 L12.3186497,23.7024347 L12.3225043,23.6906389 L12.340401,23.2611114 L12.337245,23.2485176 L12.337245,23.2485176 L12.3277531,23.2396597 L12.1430473,23.1473072 Z" id="MingCute" fill-rule="nonzero"></path>
                <path d="M3.56852,5.86489 C3.67801,4.98218 4.59583,4.45291 5.41468,4.8004 L6.06051328,5.08275736 L6.06051328,5.08275736 L6.57211434,5.31647006 L6.57211434,5.31647006 L7.16895307,5.59887178 L7.16895307,5.59887178 L7.84461646,5.93034324 L7.84461646,5.93034324 L8.33568327,6.17877319 L8.33568327,6.17877319 L9.12846993,6.59287358 L9.12846993,6.59287358 L9.69168093,6.89674199 L9.69168093,6.89674199 L10.2804243,7.2229832 L10.2804243,7.2229832 L10.8928,7.57171 L10.8928,7.57171 L11.5257725,7.94239309 L11.5257725,7.94239309 L12.1247468,8.30298889 L12.1247468,8.30298889 L12.6887578,8.65157219 L12.6887578,8.65157219 L13.4671076,9.1477123 L13.4671076,9.1477123 L14.1613625,9.605995 L14.1613625,9.605995 L14.7682658,10.0199227 L14.7682658,10.0199227 L15.2845609,10.3829978 L15.2845609,10.3829978 L15.8263796,10.7767636 L15.8263796,10.7767636 L16.0323,10.9306 L16.0323,10.9306 C16.7429,11.4662 16.7425,12.5254 16.0334,13.0612 L15.6035488,13.380038 L15.6035488,13.380038 L15.3295134,13.5780356 L15.3295134,13.5780356 L14.6663776,14.043408 L14.6663776,14.043408 L14.0708286,14.4470158 L14.0708286,14.4470158 L13.6282184,14.73916 L13.6282184,14.73916 L12.8975144,15.2080948 L12.8975144,15.2080948 L12.0885569,15.7092241 L12.0885569,15.7092241 L11.5068294,16.0586027 L11.5068294,16.0586027 L10.8919,16.4184 L10.8919,16.4184 L10.2726344,16.7711725 L10.2726344,16.7711725 L9.67900977,17.1003811 L9.67900977,17.1003811 L9.11269104,17.4062583 L9.11269104,17.4062583 L8.57534303,17.6890367 L8.57534303,17.6890367 L7.82728292,18.0704027 L7.82728292,18.0704027 L7.15377164,18.4011044 L7.15377164,18.4011044 L6.381433,18.7645854 L6.381433,18.7645854 L5.63671907,19.0970724 L5.63671907,19.0970724 L5.41284,19.1929 L5.41284,19.1929 C4.59498,19.5388 3.67819,19.0105 3.56871,18.1282 L3.48984792,17.4297968 L3.48984792,17.4297968 L3.41798914,16.662789 L3.41798914,16.662789 L3.3645018,15.973986 L3.3645018,15.973986 L3.31530744,15.1935376 L3.31530744,15.1935376 L3.28664922,14.6248491 L3.28664922,14.6248491 L3.26252854,14.0192163 L3.26252854,14.0192163 L3.24399723,13.378154 L3.24399723,13.378154 L3.22898003,12.3534438 L3.22898003,12.3534438 L3.22898003,11.6383535 L3.22898003,11.6383535 L3.24398033,10.6141804 L3.24398033,10.6141804 L3.27390944,9.66622645 L3.27390944,9.66622645 L3.3004058,9.07912122 L3.3004058,9.07912122 L3.33091194,8.5296714 L3.33091194,8.5296714 L3.38189237,7.77940824 L3.38189237,7.77940824 L3.43598797,7.12237527 L3.43598797,7.12237527 L3.50683566,6.40017665 L3.50683566,6.40017665 L3.56852,5.86489 L3.56852,5.86489 Z M19,5 C19.51285,5 19.9355092,5.38604429 19.9932725,5.88337975 L20,6 L20,18 C20,18.51285 19.613973,18.9355092 19.1166239,18.9932725 L19,19 L18,19 C17.48715,19 17.0644908,18.613973 17.0067275,18.1166239 L17,18 L17,6 C17,5.48716857 17.386027,5.06449347 17.8833761,5.0067278 L18,5 L19,5 Z" id="形状" fill="#09244B"></path>
            </g>
        </g>
    </g>
</svg>

<svg xmlns="http://www.w3.org/2000/svg" width="24" height="24"><g fill="none" fill-rule="nonzero"><path d="M24 0v24H0V0h24ZM12.593 23.258l-.011.002-.071.035-.02.004-.014-.004-.071-.035c-.01-.004-.019-.001-.024.005l-.004.01-.017.428.005.02.01.013.104.074.015.004.012-.004.104-.074.012-.016.004-.017-.017-.427c-.002-.01-.009-.017-.017-.018Zm.265-.113-.013.002-.185.093-.01.01-.003.011.018.43.005.012.008.007.201.093c.012.004.023 0 .029-.008l.004-.014-.034-.614c-.003-.012-.01-.02-.02-.022Zm-.715.002a.023.023 0 0 0-.027.006l-.006.014-.034.614c0 .012.007.02.017.024l.015-.002.201-.093.01-.008.004-.011.017-.43-.003-.012-.01-.01-.184-.092Z"/><path fill="#09244B" d="M3.569 5.865A1.332 1.332 0 0 1 5.415 4.8l.646.283.511.233.597.283.676.331.49.249.793.414.564.304.588.326.613.349.633.37.599.361.564.349.778.496.694.458.607.414.517.363.541.394.206.154c.71.535.71 1.594.001 2.13l-.43.319-.273.198-.664.465-.595.404-.443.292-.73.47-.81.5-.581.35-.615.36-.62.352-.593.33-.566.305-.538.283-.748.381-.673.331-.773.364-.744.332-.224.096a1.332 1.332 0 0 1-1.844-1.065l-.08-.698-.071-.767-.053-.689-.05-.78-.028-.57-.024-.605-.019-.64-.015-1.026v-.715l.015-1.024.03-.948.026-.587.03-.55.052-.75.054-.657.07-.722.063-.535ZM19 5a1 1 0 0 1 .993.883L20 6v12a1 1 0 0 1-.883.993L19 19h-1a1 1 0 0 1-.993-.883L17 18V6a1 1 0 0 1 .883-.993L18 5h1Z"/></g></svg>
